img/aircraft.svg

<svg width="20" height="16" xmlns="http://www.w3.org/2000/svg"><path d="M12.496 15.414c-.394-1.096-1.805-4.775-2.39-6.297-1.103.737-2.334 1.435-3.512 1.928-.366 1.28-1.094 3.709-1.446 4.033-.604.557-.832.485-.925-.279-.093-.764-.485-3.236-.485-3.236S1.576 10.344.898 9.995c-.678-.349-.667-.591.057-.974.422-.223 2.927-.085 4.242.005.861-.951 1.931-1.882 2.993-2.679-1.215-1.076-4.15-3.675-5.034-4.424-.776-.658.079-.797.079-.797.39-.07 1.222-.132 1.628-.009 2.524.763 6.442 2.068 7.363 2.376l1.162-.821C18.09-.658 19.275.079 19.499.402c.224.323.503 1.701-4.199 5.032l-1.16.823c-.029.98-.157 5.151-.311 7.811-.025.428-.367 1.198-.565 1.544-.001 0-.423.765-.768-.198z" fill="#4E504D"/></svg>

<?xml version="1.0" encoding="UTF-8"?>
<svg width="20px" height="16px" viewBox="0 0 20 16" version="1.1" xmlns="http://www.w3.org/2000/svg" xmlns:xlink="http://www.w3.org/1999/xlink">
    <!-- Generator: Sketch 43.2 (39069) - http://www.bohemiancoding.com/sketch -->
    <title>aircraft</title>
    <desc>Created with Sketch.</desc>
    <defs></defs>
    <g id="Page-1" stroke="none" stroke-width="1" fill="none" fill-rule="evenodd">
        <g id="aircraft" fill-rule="nonzero" fill="#4E504D">
            <path d="M12.496,15.414 C12.102,14.318 10.691,10.639 10.106,9.117 C9.003,9.854 7.772,10.552 6.594,11.045 C6.228,12.325 5.5,14.754 5.148,15.078 C4.544,15.635 4.316,15.563 4.223,14.799 C4.13,14.035 3.738,11.563 3.738,11.563 C3.738,11.563 1.576,10.344 0.898,9.995 C0.22,9.646 0.231,9.404 0.955,9.021 C1.377,8.798 3.882,8.936 5.197,9.026 C6.058,8.075 7.128,7.144 8.19,6.347 C6.975,5.271 4.04,2.672 3.156,1.923 C2.38,1.265 3.235,1.126 3.235,1.126 C3.625,1.056 4.457,0.994 4.863,1.117 C7.387,1.88 11.305,3.185 12.226,3.493 C12.579,3.244 12.963,2.973 13.388,2.672 C18.09,-0.658 19.275,0.079 19.499,0.402 C19.723,0.725 20.002,2.103 15.3,5.434 C14.875,5.735 14.492,6.007 14.14,6.257 C14.111,7.237 13.983,11.408 13.829,14.068 C13.804,14.496 13.462,15.266 13.264,15.612 C13.263,15.612 12.841,16.377 12.496,15.414 Z" id="Shape"></path>
        </g>
    </g>
</svg>
